gama.ui.shared/icons_svg/light/prefs/prefs.experimental2.svg

<?xml version="1.0" encoding="UTF-8" standalone="no"?>
<!DOCTYPE svg PUBLIC "-//W3C//DTD SVG 1.1//EN" "http://www.w3.org/Graphics/SVG/1.1/DTD/svg11.dtd">
<svg version="1.1" xmlns="http://www.w3.org/2000/svg" xmlns:xl="http://www.w3.org/1999/xlink" xmlns:dc="http://purl.org/dc/elements/1.1/" viewBox="-849 -3594.8674 25 25" width="25" height="25">
  <defs/>
  <g id="SOURCES" stroke-dasharray="none" fill="none" stroke="none" fill-opacity="1" stroke-opacity="1">
    <title>SOURCES</title>
    <g id="SOURCES_Calque_2">
      <title>Calque 2</title>
      <g id="Graphic_9617">
        <path d="M -840.1 -3594.3674 L -832.9 -3594.3674 C -830.5 -3594.3674 -829.3 -3594.3674 -827.86 -3593.8874 C -826.66 -3593.4074 -825.46 -3592.2074 -824.98 -3591.0074 C -824.5 -3589.5674 -824.5 -3588.3674 -824.5 -3585.9674 L -824.5 -3578.7674 C -824.5 -3576.3674 -824.5 -3575.1674 -824.98 -3573.7274 C -825.46 -3572.5274 -826.66 -3571.3274 -827.86 -3570.8474 C -829.3 -3570.3674 -830.5 -3570.3674 -832.9 -3570.3674 L -840.1 -3570.3674 C -842.5 -3570.3674 -843.7 -3570.3674 -845.14 -3570.8474 C -846.34 -3571.3274 -847.54 -3572.5274 -848.02 -3573.7274 C -848.5 -3575.1674 -848.5 -3576.3674 -848.5 -3578.7674 L -848.5 -3585.9674 C -848.5 -3588.3674 -848.5 -3589.5674 -848.02 -3591.0074 C -847.54 -3592.2074 -846.34 -3593.4074 -845.14 -3593.8874 C -843.7 -3594.3674 -842.5 -3594.3674 -840.1 -3594.3674 M -840.1 -3594.3674" fill="#9f4c4d"/>
        <path d="M -840.1 -3594.3674 L -832.9 -3594.3674 C -830.5 -3594.3674 -829.3 -3594.3674 -827.86 -3593.8874 C -826.66 -3593.4074 -825.46 -3592.2074 -824.98 -3591.0074 C -824.5 -3589.5674 -824.5 -3588.3674 -824.5 -3585.9674 L -824.5 -3578.7674 C -824.5 -3576.3674 -824.5 -3575.1674 -824.98 -3573.7274 C -825.46 -3572.5274 -826.66 -3571.3274 -827.86 -3570.8474 C -829.3 -3570.3674 -830.5 -3570.3674 -832.9 -3570.3674 L -840.1 -3570.3674 C -842.5 -3570.3674 -843.7 -3570.3674 -845.14 -3570.8474 C -846.34 -3571.3274 -847.54 -3572.5274 -848.02 -3573.7274 C -848.5 -3575.1674 -848.5 -3576.3674 -848.5 -3578.7674 L -848.5 -3585.9674 C -848.5 -3588.3674 -848.5 -3589.5674 -848.02 -3591.0074 C -847.54 -3592.2074 -846.34 -3593.4074 -845.14 -3593.8874 C -843.7 -3594.3674 -842.5 -3594.3674 -840.1 -3594.3674 M -840.1 -3594.3674" stroke="#65727e" stroke-linecap="round" stroke-linejoin="round" stroke-width=".25"/>
      </g>
      <g id="Group_9630">
        <title>code</title>
        <g id="Graphic_9631">
          <path d="M -840.62 -3581.1974 C -840.44 -3580.9874 -840.46 -3580.6674 -840.67 -3580.4874 C -840.88 -3580.3074 -841.2 -3580.3274 -841.38 -3580.5374 L -844.38 -3584.0374 C -844.54 -3584.2274 -844.54 -3584.4974 -844.38 -3584.6874 L -841.38 -3588.1874 C -841.2 -3588.3974 -840.88 -3588.4174 -840.67 -3588.2374 C -840.46 -3588.0574 -840.44 -3587.7374 -840.62 -3587.5274 L -843.34 -3584.3574 L -840.62 -3581.1874 Z M -839.55 -3574.6574 C -839.67 -3574.4074 -839.96 -3574.2974 -840.21 -3574.4174 C -840.46 -3574.5374 -840.57 -3574.8274 -840.45 -3575.0774 L -833.45 -3590.0774 C -833.33 -3590.3274 -833.04 -3590.4374 -832.79 -3590.3174 C -832.54 -3590.1974 -832.43 -3589.9074 -832.55 -3589.6574 L -839.55 -3574.6574 Z M -832.38 -3583.5374 C -832.56 -3583.7474 -832.54 -3584.0674 -832.33 -3584.2474 C -832.12 -3584.4274 -831.8 -3584.4074 -831.62 -3584.1974 L -828.62 -3580.6974 C -828.46 -3580.5074 -828.46 -3580.2374 -828.62 -3580.0474 L -831.62 -3576.5474 C -831.8 -3576.3374 -832.12 -3576.3174 -832.33 -3576.4974 C -832.54 -3576.6774 -832.56 -3576.9974 -832.38 -3577.2074 L -829.66 -3580.3774 L -832.38 -3583.5474 Z" fill="white"/>
        </g>
      </g>
    </g>
  </g>
</svg>

<svg height="25" viewBox="-849 -3594.867 25 25" width="25" xmlns="http://www.w3.org/2000/svg"><g fill="none"><path d="m-840.1-3594.3674h7.2c2.4 0 3.6 0 5.04.48 1.2.48 2.4 1.68 2.88 2.88.48 1.44.48 2.64.48 5.04v7.2c0 2.4 0 3.6-.48 5.04-.48 1.2-1.68 2.4-2.88 2.88-1.44.48-2.64.48-5.04.48h-7.2c-2.4 0-3.6 0-5.04-.48-1.2-.48-2.4-1.68-2.88-2.88-.48-1.44-.48-2.64-.48-5.04v-7.2c0-2.4 0-3.6.48-5.04.48-1.2 1.68-2.4 2.88-2.88 1.44-.48 2.64-.48 5.04-.48m0 0" fill="#9f4c4d"/><path d="m-840.1-3594.3674h7.2c2.4 0 3.6 0 5.04.48 1.2.48 2.4 1.68 2.88 2.88.48 1.44.48 2.64.48 5.04v7.2c0 2.4 0 3.6-.48 5.04-.48 1.2-1.68 2.4-2.88 2.88-1.44.48-2.64.48-5.04.48h-7.2c-2.4 0-3.6 0-5.04-.48-1.2-.48-2.4-1.68-2.88-2.88-.48-1.44-.48-2.64-.48-5.04v-7.2c0-2.4 0-3.6.48-5.04.48-1.2 1.68-2.4 2.88-2.88 1.44-.48 2.64-.48 5.04-.48m0 0" stroke="#65727e" stroke-linecap="round" stroke-linejoin="round" stroke-width=".25"/><path d="m-840.62-3581.1974c.18.21.16.53-.05.71s-.53.16-.71-.05l-3-3.5c-.16-.19-.16-.46 0-.65l3-3.5c.18-.21.5-.23.71-.05s.23.5.05.71l-2.72 3.17 2.72 3.17zm1.07 6.54c-.12.25-.41.36-.66.24s-.36-.41-.24-.66l7-15c.12-.25.41-.36.66-.24s.36.41.24.66zm7.17-8.88c-.18-.21-.16-.53.05-.71s.53-.16.71.05l3 3.5c.16.19.16.46 0 .65l-3 3.5c-.18.21-.5.23-.71.05s-.23-.5-.05-.71l2.72-3.17-2.72-3.17z" fill="#fff"/></g></svg>
